mimes/32/application-x-ms-dos-executable.svg

<?xml version="1.0" encoding="UTF-8" standalone="no"?>
<svg
   xmlns:dc="http://purl.org/dc/elements/1.1/"
   xmlns:cc="http://creativecommons.org/ns#"
   xmlns:rdf="http://www.w3.org/1999/02/22-rdf-syntax-ns#"
   xmlns:svg="http://www.w3.org/2000/svg"
   xmlns="http://www.w3.org/2000/svg"
   xmlns:xlink="http://www.w3.org/1999/xlink"
   xmlns:sodipodi="http://sodipodi.sourceforge.net/DTD/sodipodi-0.dtd"
   xmlns:inkscape="http://www.inkscape.org/namespaces/inkscape"
   version="1.1"
   width="32"
   height="32"
   id="svg3357"
   inkscape:version="0.91 r13725"
   sodipodi:docname="application-x-msi.svg">
  <sodipodi:namedview
     pagecolor="#ffffff"
     bordercolor="#666666"
     borderopacity="1"
     objecttolerance="10"
     gridtolerance="10"
     guidetolerance="10"
     inkscape:pageopacity="0"
     inkscape:pageshadow="2"
     inkscape:window-width="1366"
     inkscape:window-height="712"
     id="namedview68"
     showgrid="false"
     inkscape:zoom="1"
     inkscape:cx="16"
     inkscape:cy="16"
     inkscape:window-x="0"
     inkscape:window-y="30"
     inkscape:window-maximized="1"
     inkscape:current-layer="svg3357" />
  <defs
     id="defs3359">
    <linearGradient
       x1="26.313066"
       y1="9.8269262"
       x2="26.313066"
       y2="23.605091"
       id="linearGradient3271"
       xlink:href="#linearGradient4260-8"
       gradientUnits="userSpaceOnUse"
       gradientTransform="matrix(0.59871787,0,0,0.61785256,6.7816397,5.7146551)" />
    <linearGradient
       id="linearGradient4260-8">
      <stop
         id="stop4262-1"
         style="stop-color:#000000;stop-opacity:1"
         offset="0" />
      <stop
         id="stop4264-8"
         style="stop-color:#000000;stop-opacity:0"
         offset="1" />
    </linearGradient>
    <linearGradient
       x1="26.313066"
       y1="9.8269262"
       x2="26.313066"
       y2="23.605091"
       id="linearGradient3274"
       xlink:href="#linearGradient4260-6"
       gradientUnits="userSpaceOnUse"
       gradientTransform="matrix(0.59425046,0,0,0.62697884,1.4989372,11.09246)" />
    <linearGradient
       id="linearGradient4260-6">
      <stop
         id="stop4262-7"
         style="stop-color:#000000;stop-opacity:1"
         offset="0" />
      <stop
         id="stop4264-90"
         style="stop-color:#000000;stop-opacity:0"
         offset="1" />
    </linearGradient>
    <linearGradient
       x1="26.313066"
       y1="9.8269262"
       x2="26.313066"
       y2="23.605091"
       id="linearGradient3277"
       xlink:href="#linearGradient4260-7"
       gradientUnits="userSpaceOnUse"
       gradientTransform="matrix(0.59425046,0,0,0.62241571,-3.9803309,5.6097033)" />
    <linearGradient
       id="linearGradient4260-7">
      <stop
         id="stop4262-3"
         style="stop-color:#000000;stop-opacity:1"
         offset="0" />
      <stop
         id="stop4264-9"
         style="stop-color:#000000;stop-opacity:0"
         offset="1" />
    </linearGradient>
    <linearGradient
       x1="26.313066"
       y1="9.8269262"
       x2="26.313066"
       y2="23.605091"
       id="linearGradient3280"
       xlink:href="#linearGradient4260"
       gradientUnits="userSpaceOnUse"
       gradientTransform="matrix(0.61212008,0,0,0.59574729,1.0030552,0.5192162)" />
    <linearGradient
       id="linearGradient4260">
      <stop
         id="stop4262"
         style="stop-color:#000000;stop-opacity:1"
         offset="0" />
      <stop
         id="stop4264"
         style="stop-color:#000000;stop-opacity:0"
         offset="1" />
    </linearGradient>
    <linearGradient
       x1="44.228275"
       y1="18.456329"
       x2="16.354654"
       y2="-9.4172926"
       id="linearGradient3283"
       xlink:href="#linearGradient3707-319-631-407-324-616-6-7"
       gradientUnits="userSpaceOnUse"
       gradientTransform="matrix(0.48765987,0.49228958,-0.48765987,0.49228958,-0.8965518,-1.151901)" />
    <linearGradient
       id="linearGradient3707-319-631-407-324-616-6-7">
      <stop
         id="stop3246-7-4"
         style="stop-color:#505050;stop-opacity:1"
         offset="0" />
      <stop
         id="stop3248-3-8"
         style="stop-color:#8e8e8e;stop-opacity:1"
         offset="1" />
    </linearGradient>
    <linearGradient
       x1="23.99999"
       y1="4.999989"
       x2="23.99999"
       y2="43"
       id="linearGradient3248"
       xlink:href="#linearGradient3924-118"
       gradientUnits="userSpaceOnUse"
       gradientTransform="matrix(0.67567568,0,0,0.67567568,-0.2162134,-0.21620953)" />
    <linearGradient
       id="linearGradient3924-118">
      <stop
         id="stop3216"
         style="stop-color:#ffffff;stop-opacity:1"
         offset="0" />
      <stop
         id="stop3218"
         style="stop-color:#ffffff;stop-opacity:0.23529412"
         offset="0.06316455" />
      <stop
         id="stop3220"
         style="stop-color:#ffffff;stop-opacity:0.15686275"
         offset="0.95056331" />
      <stop
         id="stop3222"
         style="stop-color:#ffffff;stop-opacity:0.39215687"
         offset="1" />
    </linearGradient>
    <radialGradient
       cx="7.4956832"
       cy="8.4497671"
       r="19.99999"
       fx="7.4956832"
       fy="8.4497671"
       id="radialGradient3251"
       xlink:href="#linearGradient2867-449-88-871-390-598-476-591-434-148-57-177-8-802"
       gradientUnits="userSpaceOnUse"
       gradientTransform="matrix(1.3450478e-8,1.6179161,-1.7115624,-2.9808192e-8,30.46238,-9.2240923)" />
    <linearGradient
       id="linearGradient2867-449-88-871-390-598-476-591-434-148-57-177-8-802">
      <stop
         id="stop3200"
         style="stop-color:#c7c7c7;stop-opacity:1"
         offset="0" />
      <stop
         id="stop3202"
         style="stop-color:#a6a6a6;stop-opacity:1"
         offset="0.26238" />
      <stop
         id="stop3204"
         style="stop-color:#7b7b7b;stop-opacity:1"
         offset="0.704952" />
      <stop
         id="stop3206"
         style="stop-color:#595959;stop-opacity:1"
         offset="1" />
    </linearGradient>
    <linearGradient
       x1="24"
       y1="44"
       x2="24"
       y2="3.8990016"
       id="linearGradient3253"
       xlink:href="#linearGradient3707-319-631-407-324-0-168"
       gradientUnits="userSpaceOnUse"
       gradientTransform="matrix(0.69230772,0,0,0.69230772,-0.61538377,-0.61538496)" />
    <linearGradient
       id="linearGradient3707-319-631-407-324-0-168">
      <stop
         id="stop3210"
         style="stop-color:#505050;stop-opacity:1"
         offset="0" />
      <stop
         id="stop3212"
         style="stop-color:#8e8e8e;stop-opacity:1"
         offset="1" />
    </linearGradient>
    <radialGradient
       cx="4.9929786"
       cy="43.5"
       r="2.5"
       fx="4.9929786"
       fy="43.5"
       id="radialGradient2976-573"
       xlink:href="#linearGradient3688-166-749-57"
       gradientUnits="userSpaceOnUse"
       gradientTransform="matrix(2.003784,0,0,1.4,27.98813,-17.4)" />
    <linearGradient
       id="linearGradient3688-166-749-57">
      <stop
         id="stop3180"
         style="stop-color:#181818;stop-opacity:1"
         offset="0" />
      <stop
         id="stop3182"
         style="stop-color:#181818;stop-opacity:0"
         offset="1" />
    </linearGradient>
    <radialGradient
       cx="4.9929786"
       cy="43.5"
       r="2.5"
       fx="4.9929786"
       fy="43.5"
       id="radialGradient2978-786"
       xlink:href="#linearGradient3688-464-309-665"
       gradientUnits="userSpaceOnUse"
       gradientTransform="matrix(2.003784,0,0,1.4,-20.01187,-104.4)" />
    <linearGradient
       id="linearGradient3688-464-309-665">
      <stop
         id="stop3186"
         style="stop-color:#181818;stop-opacity:1"
         offset="0" />
      <stop
         id="stop3188"
         style="stop-color:#181818;stop-opacity:0"
         offset="1" />
    </linearGradient>
    <linearGradient
       x1="25.058096"
       y1="47.027729"
       x2="25.058096"
       y2="39.999443"
       id="linearGradient2980-983"
       xlink:href="#linearGradient3702-501-757-17"
       gradientUnits="userSpaceOnUse" />
    <linearGradient
       id="linearGradient3702-501-757-17">
      <stop
         id="stop3192"
         style="stop-color:#181818;stop-opacity:0"
         offset="0" />
      <stop
         id="stop3194"
         style="stop-color:#181818;stop-opacity:1"
         offset="0.5" />
      <stop
         id="stop3196"
         style="stop-color:#181818;stop-opacity:0"
         offset="1" />
    </linearGradient>
  </defs>
  <metadata
     id="metadata3362">
    <rdf:RDF>
      <cc:Work
         rdf:about="">
        <dc:format>image/svg+xml</dc:format>
        <dc:type
           rdf:resource="http://purl.org/dc/dcmitype/StillImage" />
        <dc:title />
      </cc:Work>
    </rdf:RDF>
  </metadata>
  <g
     style="display:inline"
     id="g2036"
     transform="matrix(0.6999997,0,0,0.3333336,-0.8000003,15.33333)">
    <g
       style="opacity:0.4"
       id="g3712"
       transform="matrix(1.052632,0,0,1.285713,-1.263158,-13.42854)">
      <rect
         style="fill:url(#radialGradient2976-573);fill-opacity:1;stroke:none"
         id="rect2801"
         y="40"
         x="38"
         height="7"
         width="5" />
      <rect
         style="fill:url(#radialGradient2978-786);fill-opacity:1;stroke:none"
         id="rect3696"
         transform="scale(-1,-1)"
         y="-47"
         x="-10"
         height="7"
         width="5" />
      <rect
         style="fill:url(#linearGradient2980-983);fill-opacity:1;stroke:none"
         id="rect3700"
         y="40"
         x="10"
         height="7.0000005"
         width="28" />
    </g>
  </g>
  <rect
     style="color:#000000;display:inline;overflow:visible;visibility:visible;fill:url(#radialGradient3251);fill-opacity:1;fill-rule:nonzero;stroke:url(#linearGradient3253);stroke-width:1;stroke-linecap:round;stroke-linejoin:round;stroke-miterlimit:4;stroke-dasharray:none;stroke-dashoffset:0;stroke-opacity:1;marker:none;enable-background:accumulate"
     id="rect5505"
     y="2.5"
     x="2.5"
     ry="2.1600001"
     rx="2.1600001"
     height="27"
     width="27" />
  <rect
     style="opacity:0.5;fill:none;stroke:url(#linearGradient3248);stroke-width:1;stroke-linecap:round;stroke-linejoin:round;stroke-miterlimit:4;stroke-dasharray:none;stroke-dashoffset:0;stroke-opacity:1"
     id="rect6741-7"
     y="3.4999998"
     x="3.5"
     ry="1.0869565"
     rx="1.0869565"
     height="25"
     width="25" />
  <path
     inkscape:connector-curvature="0"
     style="color:#000000;display:inline;overflow:visible;visibility:visible;opacity:0.4;fill:#ffffff;fill-opacity:1;fill-rule:nonzero;stroke:none;stroke-width:1.70000005;marker:none;enable-background:accumulate"
     id="rect4120-5-3"
     d="m 16.000002,17.949365 4.48276,4.525318 L 16.000002,27 11.517243,22.474683 Z m -5.517244,-5.569621 4.48276,4.525318 -4.48276,4.525318 L 6,16.905062 Z M 21.517242,12.569617 26,17 21.517242,21.430383 17.034483,17.000002 Z m -5.517241,-5.5696208 4.482756,4.4303828 -4.482756,4.430383 -4.48276,-4.430381 z" />
  <path
     inkscape:connector-curvature="0"
     style="color:#000000;display:inline;overflow:visible;visibility:visible;fill:url(#linearGradient3283);fill-opacity:1;fill-rule:nonzero;stroke:none;stroke-width:1.70000005;marker:none;enable-background:accumulate"
     id="rect4120-5"
     d="M 16.000002,16.949366 20.482761,21.474683 16.000002,26 11.517243,21.474684 Z m -5.517243,-5.56962 4.48276,4.525317 -4.48276,4.525317 L 6,15.905063 Z M 21.517243,11.569619 26,16.000002 l -4.482757,4.430381 -4.48276,-4.430379 z m -5.517241,-5.5696205 4.482756,4.4303825 -4.482756,4.430382 -4.48276,-4.43038 z" />
  <path
     inkscape:connector-curvature="0"
     style="color:#000000;display:inline;overflow:visible;visibility:visible;opacity:0.1;fill:none;stroke:url(#linearGradient3280);stroke-width:0.99999994;stroke-miterlimit:4;stroke-dasharray:none;stroke-opacity:1;marker:none;enable-background:accumulate"
     id="rect4120-5-5"
     d="m 15.999997,6.6391659 3.978779,3.7911221 -3.978779,3.79112 -3.97878,-3.791119 z" />
  <path
     inkscape:connector-curvature="0"
     style="color:#000000;display:inline;overflow:visible;visibility:visible;opacity:0.1;fill:none;stroke:url(#linearGradient3277);stroke-width:0.99999988;stroke-miterlimit:4;stroke-dasharray:none;stroke-opacity:1;marker:none;enable-background:accumulate"
     id="rect4120-5-5-1"
     d="m 10.578804,12.00361 3.862627,3.96083 -3.862627,3.960829 -3.8626267,-3.960828 z" />
  <path
     inkscape:connector-curvature="0"
     style="color:#000000;display:inline;overflow:visible;visibility:visible;opacity:0.1;fill:none;stroke:url(#linearGradient3274);stroke-width:0.99999994;stroke-miterlimit:4;stroke-dasharray:none;stroke-opacity:1;marker:none;enable-background:accumulate"
     id="rect4120-5-5-9"
     d="M 16.058073,17.533242 19.9207,21.52311 16.058073,25.512977 12.195446,21.523112 Z" />
  <path
     inkscape:connector-curvature="0"
     style="color:#000000;display:inline;overflow:visible;visibility:visible;opacity:0.1;fill:none;stroke:url(#linearGradient3271);stroke-width:0.99999988;stroke-miterlimit:4;stroke-dasharray:none;stroke-opacity:1;marker:none;enable-background:accumulate"
     id="rect4120-5-5-2"
     d="m 21.450226,12.061686 3.891666,3.931792 -3.891666,3.93179 -3.891665,-3.931789 z" />
</svg>

<svg xmlns="http://www.w3.org/2000/svg" xmlns:xlink="http://www.w3.org/1999/xlink" viewBox="0 0 32 32"><defs><linearGradient x1="26.313" y1="9.827" x2="26.313" y2="23.605" id="v" xlink:href="#a" gradientUnits="userSpaceOnUse" gradientTransform="matrix(.59872 0 0 .61785 6.782 5.715)"/><linearGradient id="a"><stop offset="0"/><stop offset="1" stop-opacity="0"/></linearGradient><linearGradient x1="26.313" y1="9.827" x2="26.313" y2="23.605" id="u" xlink:href="#b" gradientUnits="userSpaceOnUse" gradientTransform="matrix(.59425 0 0 .62698 1.5 11.092)"/><linearGradient id="b"><stop offset="0"/><stop offset="1" stop-opacity="0"/></linearGradient><linearGradient x1="26.313" y1="9.827" x2="26.313" y2="23.605" id="t" xlink:href="#c" gradientUnits="userSpaceOnUse" gradientTransform="matrix(.59425 0 0 .62242 -3.98 5.61)"/><linearGradient id="c"><stop offset="0"/><stop offset="1" stop-opacity="0"/></linearGradient><linearGradient x1="26.313" y1="9.827" x2="26.313" y2="23.605" id="s" xlink:href="#d" gradientUnits="userSpaceOnUse" gradientTransform="matrix(.61212 0 0 .59575 1.003 .52)"/><linearGradient id="d"><stop offset="0"/><stop offset="1" stop-opacity="0"/></linearGradient><linearGradient x1="44.228" y1="18.456" x2="16.355" y2="-9.417" id="r" xlink:href="#e" gradientUnits="userSpaceOnUse" gradientTransform="scale(.68966 .6962) rotate(45 1.347 -2.397)"/><linearGradient id="e"><stop offset="0" stop-color="#505050"/><stop offset="1" stop-color="#8e8e8e"/></linearGradient><linearGradient x1="24" y1="5" x2="24" y2="43" id="q" xlink:href="#f" gradientUnits="userSpaceOnUse" gradientTransform="translate(-.216 -.216) scale(.67568)"/><linearGradient id="f"><stop offset="0" stop-color="#fff"/><stop offset=".063" stop-color="#fff" stop-opacity=".235"/><stop offset=".951" stop-color="#fff" stop-opacity=".157"/><stop offset="1" stop-color="#fff" stop-opacity=".392"/></linearGradient><radialGradient cx="7.496" cy="8.45" r="20" fx="7.496" fy="8.45" id="o" xlink:href="#g" gradientUnits="userSpaceOnUse" gradientTransform="matrix(0 1.61792 -1.71156 0 30.462 -9.224)"/><linearGradient id="g"><stop offset="0" stop-color="#c7c7c7"/><stop offset=".262" stop-color="#a6a6a6"/><stop offset=".705" stop-color="#7b7b7b"/><stop offset="1" stop-color="#595959"/></linearGradient><linearGradient x1="24" y1="44" x2="24" y2="3.899" id="p" xlink:href="#h" gradientUnits="userSpaceOnUse" gradientTransform="translate(-.615 -.615) scale(.6923)"/><linearGradient id="h"><stop offset="0" stop-color="#505050"/><stop offset="1" stop-color="#8e8e8e"/></linearGradient><radialGradient cx="4.993" cy="43.5" r="2.5" fx="4.993" fy="43.5" id="l" xlink:href="#i" gradientUnits="userSpaceOnUse" gradientTransform="matrix(2.00378 0 0 1.4 27.988 -17.4)"/><linearGradient id="i"><stop offset="0" stop-color="#181818"/><stop offset="1" stop-color="#181818" stop-opacity="0"/></linearGradient><radialGradient cx="4.993" cy="43.5" r="2.5" fx="4.993" fy="43.5" id="m" xlink:href="#j" gradientUnits="userSpaceOnUse" gradientTransform="matrix(2.00378 0 0 1.4 -20.012 -104.4)"/><linearGradient id="j"><stop offset="0" stop-color="#181818"/><stop offset="1" stop-color="#181818" stop-opacity="0"/></linearGradient><linearGradient x1="25.058" y1="47.028" x2="25.058" y2="39.999" id="n" xlink:href="#k" gradientUnits="userSpaceOnUse"/><linearGradient id="k"><stop offset="0" stop-color="#181818" stop-opacity="0"/><stop offset=".5" stop-color="#181818"/><stop offset="1" stop-color="#181818" stop-opacity="0"/></linearGradient></defs><g opacity=".4"><path fill="url(#l)" d="M38 40h5v7h-5z" transform="matrix(.73684 0 0 .42857 -1.684 10.857)"/><path transform="matrix(-.73684 0 0 -.42857 -1.684 10.857)" fill="url(#m)" d="M-10-47h5v7h-5z"/><path fill="url(#n)" d="M10 40h28v7H10z" transform="matrix(.73684 0 0 .42857 -1.684 10.857)"/></g><rect y="2.5" x="2.5" ry="2.16" rx="2.16" height="27" width="27" color="#000" overflow="visible" fill="url(#o)" stroke="url(#p)" stroke-linecap="round" stroke-linejoin="round"/><rect y="3.5" x="3.5" ry="1.087" rx="1.087" height="25" width="25" opacity=".5" fill="none" stroke="url(#q)" stroke-linecap="round" stroke-linejoin="round"/><path d="M16 17.95l4.483 4.525L16 27l-4.483-4.525zm-5.517-5.57l4.483 4.525-4.483 4.525L6 16.905zm11.034.19L26 17l-4.483 4.43L17.034 17zM16 7l4.483 4.43L16 15.86l-4.483-4.43z" color="#000" overflow="visible" opacity=".4" fill="#fff"/><path d="M16 16.95l4.483 4.525L16 26l-4.483-4.525zm-5.517-5.57l4.483 4.525-4.483 4.525L6 15.905zm11.034.19L26 16l-4.483 4.43L17.034 16zM16 6l4.483 4.43L16 14.86l-4.483-4.43z" color="#000" overflow="visible" fill="url(#r)"/><path d="M16 6.64l3.98 3.79L16 14.22l-3.98-3.79z" color="#000" overflow="visible" opacity=".1" fill="none" stroke="url(#s)"/><path d="M10.58 12.004l3.86 3.96-3.86 3.96-3.864-3.96z" color="#000" overflow="visible" opacity=".1" fill="none" stroke="url(#t)"/><path d="M16.058 17.533l3.863 3.99-3.86 3.99-3.863-3.99z" color="#000" overflow="visible" opacity=".1" fill="none" stroke="url(#u)"/><path d="M21.45 12.062l3.892 3.93-3.892 3.933-3.89-3.932z" color="#000" overflow="visible" opacity=".1" fill="none" stroke="url(#v)"/></svg>
